src/icons/icons_set_01/064-github.svg

<svg height="33" viewBox="0 0 33 33" width="33" xmlns="http://www.w3.org/2000/svg"><path d="m152.608 331.455c-8.994 0-16.288 7.293-16.288 16.29 0 7.197 4.667 13.302 11.14 15.456.815.15 1.112-.353 1.112-.785 0-.387-.014-1.411-.022-2.77-4.531.984-5.487-2.184-5.487-2.184-.741-1.882-1.809-2.383-1.809-2.383-1.479-1.01.112-.99.112-.99 1.635.115 2.495 1.679 2.495 1.679 1.453 2.489 3.813 1.77 4.741 1.353.148-1.052.569-1.77 1.034-2.177-3.617-.411-7.42-1.809-7.42-8.051 0-1.778.635-3.233 1.677-4.371-.168-.412-.727-2.069.16-4.311 0 0 1.367-.438 4.479 1.67 1.299-.362 2.693-.542 4.078-.549 1.384.007 2.777.187 4.078.549 3.11-2.108 4.475-1.67 4.475-1.67.889 2.242.33 3.899.163 4.311 1.044 1.138 1.674 2.593 1.674 4.371 0 6.258-3.809 7.635-7.437 8.038.584.503 1.105 1.497 1.105 3.016 0 2.178-.02 3.935-.02 4.469 0 .436.294.943 1.12.784 6.468-2.159 11.131-8.26 11.131-15.455 0-8.997-7.294-16.29-16.291-16.29" fill="#fffffe" fill-rule="evenodd" transform="translate(-136 -331)"/></svg>

<?xml version="1.0" encoding="UTF-8"?>
<svg width="33px" height="33px" viewBox="0 0 33 33" version="1.1" xmlns="http://www.w3.org/2000/svg" xmlns:xlink="http://www.w3.org/1999/xlink">
    <!-- Generator: Sketch 64 (93537) - https://sketch.com -->
    <title>Fill 51</title>
    <desc>Created with Sketch.</desc>
    <g id="Page-1" stroke="none" stroke-width="1" fill="none" fill-rule="evenodd">
        <g id="GitHub-Mark" transform="translate(-136.000000, -331.000000)" fill="#FFFFFE">
            <path d="M152.608,331.455 C143.614,331.455 136.32,338.748 136.32,347.745 C136.32,354.942 140.987,361.047 147.46,363.201 C148.275,363.351 148.572,362.848 148.572,362.416 C148.572,362.029 148.558,361.005 148.55,359.646 C144.019,360.63 143.063,357.462 143.063,357.462 C142.322,355.58 141.254,355.079 141.254,355.079 C139.775,354.069 141.366,354.089 141.366,354.089 C143.001,354.204 143.861,355.768 143.861,355.768 C145.314,358.257 147.674,357.538 148.602,357.121 C148.75,356.069 149.171,355.351 149.636,354.944 C146.019,354.533 142.216,353.135 142.216,346.893 C142.216,345.115 142.851,343.66 143.893,342.522 C143.725,342.11 143.166,340.453 144.053,338.211 C144.053,338.211 145.42,337.773 148.532,339.881 C149.831,339.519 151.225,339.339 152.61,339.332 C153.994,339.339 155.387,339.519 156.688,339.881 C159.798,337.773 161.163,338.211 161.163,338.211 C162.052,340.453 161.493,342.11 161.326,342.522 C162.37,343.66 163,345.115 163,346.893 C163,353.151 159.191,354.528 155.563,354.931 C156.147,355.434 156.668,356.428 156.668,357.947 C156.668,360.125 156.648,361.882 156.648,362.416 C156.648,362.852 156.942,363.359 157.768,363.2 C164.236,361.041 168.899,354.94 168.899,347.745 C168.899,338.748 161.605,331.455 152.608,331.455" id="Fill-51"></path>
        </g>
    </g>
</svg>
